Adwaita++-Dark/actions/16/view-zoom-fit-width.svg

<svg height="16" width="16" xmlns="http://www.w3.org/2000/svg">
  <g fill="#e6ddff" transform="translate(-31.97559 -220.36218)">
    <path d="m10.893072 221.30212v14h14v-14zm2 2h2 2v2h-2v6h2v2h-2-2zm6 0h2 2v10h-2-2v-2h2v-6h-2z"/>
    <path d="m1.03125 1v14h14v-14zm4.40625 4.03125h1v1c.00004.25721-.12938.52849-.3125.71875l-1.28125 1.28125 1.28125 1.28125c.18288.19051.3125.46155.3125.71875v1h-1c-.30979 0-.55207-.0901-.75-.28125l-2.65625-2.71875 2.65625-2.71875c.19788-.19132.4402-.28125.75-.28125zm4.15625 0h1c.3098 0 .55212.08993.75.28125l2.65625 2.71875-2.65625 2.71875c-.19793.19115-.44021.28125-.75.28125h-1v-1c0-.2572.12962-.52824.3125-.71875l1.28125-1.28125-1.28125-1.28125c-.18312-.19026-.31254-.46154-.3125-.71875z" transform="translate(31.97559 220.36218)"/>
  </g>
</svg>

<svg xmlns="http://www.w3.org/2000/svg" width="16" height="16" version="1.1">
 <defs>
  <linearGradient id="linearGradient3946">
   <stop id="stop3948" offset="0" style="stop-color:#000000;stop-opacity:0.74698794"/>
   <stop id="stop3950" offset="1" style="stop-color:#000000;stop-opacity:0.02409638"/>
  </linearGradient>
  <linearGradient id="linearGradient3830-9">
   <stop style="stop-color:#000000;stop-opacity:0.74698794" id="stop3832-7" offset="0"/>
   <stop style="stop-color:#000000;stop-opacity:0.02409638" id="stop3834-5" offset="1"/>
  </linearGradient>
  <linearGradient id="linearGradient3984">
   <stop style="stop-color:#f4deba" id="stop3986" offset="0"/>
   <stop style="stop-color:#de9625;stop-opacity:0" id="stop3988" offset="1"/>
  </linearGradient>
 </defs>
 <g id="layer1" transform="translate(-31.97559,-220.36218)">
  <path fill="#E6DDFF" d="m 10.893072,221.30212 0,14 14,0 0,-14 -14,0 z m 2,2 2,0 2,0 0,2 -2,0 0,6 2,0 0,2 -2,0 -2,0 0,-10 z m 6,0 2,0 2,0 0,10 -2,0 -2,0 0,-2 2,0 0,-6 -2,0 0,-2 z"/>
  <path fill="#E6DDFF" d="M 1.03125 1 L 1.03125 15 L 15.03125 15 L 15.03125 1 L 1.03125 1 z M 5.4375 5.03125 L 6.4375 5.03125 L 6.4375 6.03125 C 6.43754 6.28846 6.30812 6.55974 6.125 6.75 L 4.84375 8.03125 L 6.125 9.3125 C 6.30788 9.50301 6.4375 9.77405 6.4375 10.03125 L 6.4375 11.03125 L 5.4375 11.03125 C 5.12771 11.03125 4.88543 10.94115 4.6875 10.75 L 2.03125 8.03125 L 4.6875 5.3125 C 4.88538 5.12118 5.1277 5.03125 5.4375 5.03125 z M 9.59375 5.03125 L 10.59375 5.03125 C 10.90355 5.03125 11.14587 5.12118 11.34375 5.3125 L 14 8.03125 L 11.34375 10.75 C 11.14582 10.94115 10.90354 11.03125 10.59375 11.03125 L 9.59375 11.03125 L 9.59375 10.03125 C 9.59375 9.77405 9.72337 9.50301 9.90625 9.3125 L 11.1875 8.03125 L 9.90625 6.75 C 9.72313 6.55974 9.59371 6.28846 9.59375 6.03125 L 9.59375 5.03125 z" transform="translate(31.97559,220.36218)"/>
 </g>
</svg>
